svg/u3299.svg

<svg viewBox="0 0 128 128" xmlns="http://www.w3.org/2000/svg">
  <g>
    <circle cx="64" cy="64" r="60" fill="#CC3333"/>
    <circle cx="60.1" cy="63.1" r="56.1" fill="#F44336"/>
  </g>
  <g>
    <path d="M24.35,29.7c4.5-7.1,14.1-13,24.1-14.8 c2.5-0.4,5-0.6,7.1,0.2c1.6,0.6,2.9,2.1,2,3.8c-0.7,1.4-2.6,2-4.1,2.5c-9.38,3.1-17.47,9.21-23,17.4c-2,3-5,11.3-8.7,9.2 C17.85,45.7,18.65,38.5,24.35,29.7z" opacity="0.65" fill="#FF8A80" enable-background="new "/>
    <path d="M24.35,29.7c4.5-7.1,14.1-13,24.1-14.8 c2.5-0.4,5-0.6,7.1,0.2c1.6,0.6,2.9,2.1,2,3.8c-0.7,1.4-2.6,2-4.1,2.5c-9.38,3.1-17.47,9.21-23,17.4c-2,3-5,11.3-8.7,9.2 C17.85,45.7,18.65,38.5,24.35,29.7z" opacity="0.3" fill="#FF8A80" enable-background="new "/>
  </g>
  <g>
    <path d="M63.1,30.2c4.58,3.2,8.95,6.67,13.1,10.4c0.83,0.71,2.08,0.62,2.8-0.2l2.6-3.3 c0.64-0.78,0.55-1.93-0.2-2.6c-4.35-3.72-8.96-7.13-13.8-10.2c-0.82-0.48-1.87-0.31-2.5,0.4c-0.6,0.8-1.5,1.8-2.3,2.7 c-0.06,0.06-0.11,0.13-0.16,0.2C62.05,28.44,62.25,29.61,63.1,30.2z" fill="#FAFAFA"/>
    <path d="M49.55,72.4c-0.35,1.13-0.74,2.25-1.15,3.3c-0.34,1.02,0.19,2.12,1.2,2.5l2.7,0.9 c0.99,0.33,2.07-0.21,2.4-1.2c2.4-6.7,4-16.5,4.8-24.5c0.03-0.94-0.59-1.77-1.5-2l-2.4-0.6c-0.08-0.02-0.15-0.03-0.23-0.03 c-1.05-0.09-1.98,0.68-2.07,1.73c-0.53,5.69-1.46,11.34-2.8,16.9c0,0-0.21,0.69-0.42,1.4C49.91,71.39,49.64,72.16,49.55,72.4z" fill="#FAFAFA"/>
    <path d="M100.3,77.6c-1.73-7.88-4.21-15.59-7.4-23c-0.21-0.39-0.66-0.6-1.1-0.5L89,54.9 c-0.15,0.02-0.31,0.01-0.46-0.04c-0.52-0.17-0.81-0.74-0.64-1.26c2.77-6.9,5.18-13.94,7.2-21.1c0.01-0.05,0.03-0.11,0.04-0.16 c0.19-1.04-0.49-2.04-1.54-2.24l-4-0.8c-0.99-0.19-1.96,0.42-2.2,1.4C84.16,43.33,79.32,55.5,73,66.9 c-0.17,0.23-0.43,0.37-0.71,0.4c-0.55,0.05-1.04-0.35-1.09-0.9V45c0-0.04,0-0.08,0-0.12c-0.03-1.02-0.88-1.81-1.9-1.78h-3.9 c-1.05,0-1.9,0.85-1.9,1.9v35.4c0.02,0.44-0.12,0.86-0.4,1.2c-4.18,5.14-8.99,9.74-14.3,13.7c-0.15,0.11-0.27,0.24-0.38,0.38 c-0.62,0.83-0.45,2,0.38,2.62c1.1,0.9,2.4,1.9,3.3,2.8c0.71,0.61,1.75,0.66,2.5,0.1c2.6-2.01,5.08-4.18,7.4-6.5 c0.16-0.17,0.39-0.27,0.63-0.29c0.51-0.02,0.95,0.37,0.97,0.89c0.6,6,3,7.8,10,7.8h11c6.8,0,8.9-3.5,9.8-14.9 c0.03-0.87-0.49-1.67-1.3-2c-0.99-0.33-1.96-0.73-2.9-1.2c-0.24-0.12-0.51-0.2-0.78-0.21c-1.06-0.06-1.96,0.75-2.02,1.81 c-0.4,7.6-1,9.3-3.5,9.3l-9.4,0c-3,0-3.4-0.6-3.4-4.2v-7.2c0.03-0.4,0.17-0.78,0.4-1.1c5.42-7.43,10.05-15.41,13.8-23.8 c0.1-0.2,0.26-0.37,0.46-0.46c0.5-0.24,1.1-0.03,1.34,0.46c2.45,6.44,4.39,13.06,5.8,19.8c0.01,0.05,0.02,0.11,0.04,0.16 c0.28,1.02,1.34,1.62,2.36,1.34c1.1-0.4,2.6-0.8,3.7-1.1C99.93,79.51,100.49,78.56,100.3,77.6z" fill="#FAFAFA"/>
    <path d="M49.93,71.7c0.08-0.39-0.42-1.08-0.42-1.08l-0.6-0.8c-0.04-0.04-0.08-0.07-0.11-0.12 c-2.3-3.3-6.6-9.3-8.5-11.8c-0.11-0.18-0.18-0.39-0.2-0.6v-0.4c0-0.55,0.45-1,1-1H48c1.05,0,1.9-0.85,1.9-1.9v-3.7 c0-1.05-0.85-1.9-1.9-1.9h-6.6c-0.55,0-1-0.45-1-1V34.7c0.02-0.42,0.3-0.78,0.7-0.9c2.31-0.57,4.58-1.27,6.8-2.1 c0.16-0.06,0.31-0.15,0.44-0.25c0.83-0.63,0.99-1.82,0.36-2.65c-0.8-1.1-1.8-2.5-2.5-3.4c-0.53-0.71-1.49-0.96-2.3-0.6 c-5.2,2.3-12.7,4.3-19.6,5.8c-0.14,0.02-0.27,0.06-0.4,0.11c-0.94,0.38-1.38,1.45-1,2.39c0.4,0.9,0.7,1.8,1,2.7 c0.27,0.9,1.17,1.46,2.1,1.3c1.9-0.3,3.8-0.7,5.7-1.1c0.07-0.02,0.15-0.02,0.22-0.02c0.5,0.01,0.89,0.43,0.88,0.92v10.4 c0,0.55-0.45,1-1,1h-8.4c-1.03,0.05-1.85,0.87-1.9,1.9v3.7c0,1.05,0.85,1.9,1.9,1.9h7.2c0.09,0,0.17,0.01,0.26,0.04 c0.5,0.14,0.79,0.66,0.64,1.16c-2.7,8.4-7.1,17.6-11.4,23.4c-0.48,0.61-0.52,1.45-0.1,2.1c0.7,1.2,1.5,2.5,2.1,3.8 c0.16,0.35,0.42,0.65,0.75,0.85c0.88,0.53,2.02,0.24,2.55-0.65c2.15-3.52,4.02-7.2,5.6-11c0.15-0.21,0.38-0.36,0.64-0.41 c0.54-0.1,1.06,0.26,1.16,0.81v26.2c0,1.05,0.85,1.9,1.9,1.9h3.7c0.04,0,0.08,0,0.12,0c1.02-0.03,1.81-0.88,1.78-1.9V71.4 c0.05-0.26,0.19-0.49,0.41-0.64c0.45-0.32,1.07-0.21,1.39,0.24c0.7,1.4,1.3,2.8,1.9,4c0.6,1.3,2,1.37,3,0.4l2.38-2.19 C49.51,73.01,49.87,71.99,49.93,71.7z" fill="#FAFAFA"/>
  </g>
</svg>

<svg viewBox="0 0 128 128" xmlns="http://www.w3.org/2000/svg">
  <defs/>
  <path d="M124,64 A60 60 0 1 1 4,64 A60 60 0 1 1 124,64 Z" fill="#CC3333"/>
  <path d="M116.2,63.1 A56.1 56.1 0 1 1 4,63.1 A56.1 56.1 0 1 1 116.2,63.1 Z" fill="#F44336"/>
  <path d="M24.35,29.7 C28.85,22.6 38.45,16.7 48.45,14.9 C50.95,14.5 53.45,14.3 55.55,15.1 C57.15,15.7 58.45,17.2 57.55,18.9 C56.85,20.3 54.95,20.9 53.45,21.4 C44.07,24.5 35.98,30.61 30.45,38.8 C28.45,41.8 25.45,50.1 21.75,48 C17.85,45.7 18.65,38.5 24.35,29.7 Z" fill="#FF8A80" opacity="0.65"/>
  <path d="M24.35,29.7 C28.85,22.6 38.45,16.7 48.45,14.9 C50.95,14.5 53.45,14.3 55.55,15.1 C57.15,15.7 58.45,17.2 57.55,18.9 C56.85,20.3 54.95,20.9 53.45,21.4 C44.07,24.5 35.98,30.61 30.45,38.8 C28.45,41.8 25.45,50.1 21.75,48 C17.85,45.7 18.65,38.5 24.35,29.7 Z" fill="#FF8A80" opacity="0.3"/>
  <path d="M63.1,30.2 C67.68,33.4 72.05,36.87 76.2,40.6 C77.03,41.31 78.28,41.22 79,40.4 L81.6,37.1 C82.24,36.32 82.15,35.17 81.4,34.5 C77.05,30.78 72.44,27.37 67.6,24.3 C66.78,23.82 65.73,23.99 65.1,24.7 C64.5,25.5 63.6,26.5 62.8,27.4 C62.74,27.46 62.69,27.53 62.64,27.6 C62.05,28.44 62.25,29.61 63.1,30.2 Z" fill="#FAFAFA"/>
  <path d="M49.55,72.4 C49.2,73.53 48.81,74.65 48.4,75.7 C48.06,76.72 48.59,77.82 49.6,78.2 L52.3,79.1 C53.29,79.43 54.37,78.89 54.7,77.9 C57.1,71.2 58.7,61.4 59.5,53.4 C59.53,52.46 58.91,51.63 58,51.4 L55.6,50.8 C55.52,50.78 55.45,50.77 55.37,50.77 C54.32,50.68 53.39,51.45 53.3,52.5 C52.77,58.19 51.84,63.84 50.5,69.4 C50.5,69.4 50.29,70.09 50.08,70.8 C49.91,71.39 49.64,72.16 49.55,72.4 Z" fill="#FAFAFA"/>
  <path d="M100.3,77.6 C98.57,69.72 96.09,62.01 92.9,54.6 C92.69,54.21 92.24,54 91.8,54.1 L89,54.9 C88.85,54.92 88.69,54.91 88.54,54.86 C88.02,54.69 87.73,54.12 87.9,53.6 C90.67,46.7 93.08,39.66 95.1,32.5 C95.11,32.45 95.13,32.39 95.14,32.34 C95.33,31.3 94.65,30.3 93.6,30.1 L89.6,29.3 C88.61,29.11 87.64,29.72 87.4,30.7 C84.16,43.33 79.32,55.5 73,66.9 C72.83,67.13 72.57,67.27 72.29,67.3 C71.74,67.35 71.25,66.95 71.2,66.4 L71.2,45 C71.2,44.96 71.2,44.92 71.2,44.88 C71.17,43.86 70.32,43.07 69.3,43.1 L65.4,43.1 C64.35,43.1 63.5,43.95 63.5,45 L63.5,80.4 C63.52,80.84 63.38,81.26 63.1,81.6 C58.92,86.74 54.11,91.34 48.8,95.3 C48.65,95.41 48.53,95.54 48.42,95.68 C47.8,96.51 47.97,97.68 48.8,98.3 C49.9,99.2 51.2,100.2 52.1,101.1 C52.81,101.71 53.85,101.76 54.6,101.2 C57.2,99.19 59.68,97.02 62,94.7 C62.16,94.53 62.39,94.43 62.63,94.41 C63.14,94.39 63.58,94.78 63.6,95.3 C64.2,101.3 66.6,103.1 73.6,103.1 L84.6,103.1 C91.4,103.1 93.5,99.6 94.4,88.2 C94.43,87.33 93.91,86.53 93.1,86.2 C92.11,85.87 91.14,85.47 90.2,85 C89.96,84.88 89.69,84.8 89.42,84.79 C88.36,84.73 87.46,85.54 87.4,86.6 C87,94.2 86.4,95.9 83.9,95.9 L74.5,95.9 C71.5,95.9 71.1,95.3 71.1,91.7 L71.1,84.5 C71.13,84.1 71.27,83.72 71.5,83.4 C76.92,75.97 81.55,67.99 85.3,59.6 C85.4,59.4 85.56,59.23 85.76,59.14 C86.26,58.9 86.86,59.11 87.1,59.6 C89.55,66.04 91.49,72.66 92.9,79.4 C92.91,79.45 92.92,79.51 92.94,79.56 C93.22,80.58 94.28,81.18 95.3,80.9 C96.4,80.5 97.9,80.1 99,79.8 C99.93,79.51 100.49,78.56 100.3,77.6 Z" fill="#FAFAFA"/>
  <path d="M49.93,71.7 C50.01,71.31 49.51,70.62 49.51,70.62 L48.91,69.82 C48.87,69.78 48.83,69.75 48.8,69.7 C46.5,66.4 42.2,60.4 40.3,57.9 C40.19,57.72 40.12,57.51 40.1,57.3 L40.1,56.9 C40.1,56.35 40.55,55.9 41.1,55.9 L48,55.9 C49.05,55.9 49.9,55.05 49.9,54 L49.9,50.3 C49.9,49.25 49.05,48.4 48,48.4 L41.4,48.4 C40.85,48.4 40.4,47.95 40.4,47.4 L40.4,34.7 C40.42,34.28 40.7,33.92 41.1,33.8 C43.41,33.23 45.68,32.53 47.9,31.7 C48.06,31.64 48.21,31.55 48.34,31.45 C49.17,30.82 49.33,29.63 48.7,28.8 C47.9,27.7 46.9,26.3 46.2,25.4 C45.67,24.69 44.71,24.44 43.9,24.8 C38.7,27.1 31.2,29.1 24.3,30.6 C24.16,30.62 24.03,30.66 23.9,30.71 C22.96,31.09 22.52,32.16 22.9,33.1 C23.3,34 23.6,34.9 23.9,35.8 C24.17,36.7 25.07,37.26 26,37.1 C27.9,36.8 29.8,36.4 31.7,36 C31.77,35.98 31.85,35.98 31.92,35.98 C32.42,35.99 32.81,36.41 32.8,36.9 L32.8,47.3 C32.8,47.85 32.35,48.3 31.8,48.3 L23.4,48.3 C22.37,48.35 21.55,49.17 21.5,50.2 L21.5,53.9 C21.5,54.95 22.35,55.8 23.4,55.8 L30.6,55.8 C30.69,55.8 30.77,55.81 30.86,55.84 C31.36,55.98 31.65,56.5 31.5,57 C28.8,65.4 24.4,74.6 20.1,80.4 C19.62,81.01 19.58,81.85 20,82.5 C20.7,83.7 21.5,85 22.1,86.3 C22.26,86.65 22.52,86.95 22.85,87.15 C23.73,87.68 24.87,87.39 25.4,86.5 C27.55,82.98 29.42,79.3 31,75.5 C31.15,75.29 31.38,75.14 31.64,75.09 C32.18,74.99 32.7,75.35 32.8,75.9 L32.8,102.1 C32.8,103.15 33.65,104 34.7,104 L38.4,104 C38.44,104 38.48,104 38.52,104 C39.54,103.97 40.33,103.12 40.3,102.1 L40.3,71.4 C40.35,71.14 40.49,70.91 40.71,70.76 C41.16,70.44 41.78,70.55 42.1,71 C42.8,72.4 43.4,73.8 44,75 C44.6,76.3 46,76.37 47,75.4 L49.38,73.21 C49.51,73.01 49.87,71.99 49.93,71.7 Z" fill="#FAFAFA"/>
</svg>
